**kern
*ICvox
*
=1
*>Letter>A
*>Label>Intro
*M4/4
*clefG2
0
=2
2.94
=3
5.87
=4
8.81
=5
11.74
=6
14.39
=7
17.03
.
=8
19.67
=9
22.31
=10
24.95
=11
27.52
=12
30.09
=13
32.67
=14
35.24
=15
37.73
=16
40.23
.
=17
42.72
.
=18
45.22
.
=19
47.71
48.96
49.58
49.9
=20
*>Letter>B
*>Label>Preverse
50.21
50.54
50.88
51.55
52.22
52.39
52.73
=21
52.89
53.06
53.56
54.24
=22
55.58
56.25
56.59
56.92
57.59
57.93
=23
58.26
58.43
58.77
58.94
59.27
59.61
60.28
=24
60.95
61.11
61.26
61.58
61.73
61.89
62.05
62.2
62.36
62.67
62.83
63.14
63.3
=25
63.46
63.61
63.93
64.08
64.24
64.4
64.71
=26
65.97
66.59
66.91
.
67.53
68.16
=27
68.47
68.94
69.41
69.57
.
70.04
70.35
=28
70.98
71.61
71.76
72.24
72.39
72.86
=29
73.49
74.12
74.43
.
74.9
75.06
75.53
=30
*D:
76
.
=31
78.5
.
=32
81.01
.
=33
83.52
.
.
=34
*>Letter>C
*>Label>Verse
86.03
86.18
86.49
86.79
87.1
.
87.55
87.86
88.16
88.32
=35
88.47
88.62
88.93
89.38
89.69
89.84
90.3
90.76
=36
90.91
91.06
91.37
91.82
92.13
92.28
92.43
93.04
93.2
=37
93.35
93.81
93.96
94.26
94.57
94.72
95.18
=38
95.79
.
=39
98.14
.
=40
100.49
.
=41
102.83
.
.
=42
105.18
105.33
105.63
105.94
106.24
.
106.54
106.99
107.29
107.44
=43
107.59
107.74
108.04
108.34
108.65
.
108.95
109.25
109.4
=44
110
110.15
110.45
110.91
111.21
111.36
111.51
112.11
=45
112.41
112.86
113.01
113.42
.
113.82
114.22
=46
114.82
115.41
115.99
=47
117.16
.
=48
119.51
.
=49
121.85
.
.
=50
*>Letter>D
*>Label>Verse
124.19
124.34
124.64
125.08
125.38
125.97
126.27
126.41
=51
126.56
126.86
127.16
127.45
127.6
.
127.9
128.34
=52
128.93
129.23
129.53
129.82
130.12
130.71
131.01
131.16
=53
131.3
131.6
131.9
132.19
132.49
132.79
132.94
133.38
=54
*>Label>>Interlude
133.68
.
=55
136.01
.
=56
138.35
.
=57
140.69
.
=58
143.03
.
=59
145.36
.
=60
*>Letter>E
*>Label>Solo
*
1r
=61
1r
=62
1r
=63
1r
=64
1r
=65
1r
=66
1r
=67
1r
=68
1r
=69
1r
=70
1r
=71
*M3/4
2.r
=72
2.r
=73
2.r
=74
2.r
=75
*D:
*M2/4
2r
=76
*M4/4
*
1r
.
=77
1r
.
=78
1r
.
=79
1r
.
.
=80
*>Letter>G
*>Label>Verse
16dd
8dd
8b
8b
8.a
.
8r
8r
8d
=81
8f#
8a
8a
8f#
16a
8.b
4r
=82
16dd
8dd
8b
8b
16a
16b
8a
16r
8r
8d
=83
8f#
16a
8a
8.b
16b
8.a
4r
=84
1r
.
=85
1r
.
=86
1r
.
=87
1r
.
.
=88
16dd
8dd
8b
8b
8.a
.
8r
8r
16d
[16f#
=89
16f#]
8.a
8a
16f#
8a
.
8.b
4r
=90
8dd
16dd
8b
16b
4.a
.
8r
8d
=91
8f#
8a
8a
8b
8b
4.a
=92
8b
4a
8b
[4a
16a]
8b
[16a
=93
4a_
16a]
8b
4a
16r
8f#
8a
=94
8a
8b
8b
4.a
4r
=95
2r
8r
8d
16f#
8.a
=96
16a
8.b
16b
16dd
[4.a
4a]
=97
2r
[2b
=98
2b_
8b]
8dd
[4a
=99
8.a]
16f#
8f#
8e
8d
16d
8f#
8e
[16d
=100
8d]
16d
8f#
8a
8a
8.f#
4r
=101
1r
=102
1r
=103
*>Letter>A2
*>Label>Outro
1r
=104
1r
=105
1r
=106
1r
=107
1r
=108
1r
=109
1r
.
=110
1r
=111
1r
=112
1r
r;
r;
*-
!!!BillboardChartDate: 1973/06/30, 1973/08/11
!!!BillboardPeak: 51, 51
!!!BillboardWeeksOnChart: 8, 8
!!!COC: Led Zeppelin
!!!EMD: The solo in mcgill transcription was WAY too long. Interpetations of meter were wrong. 
!!!EMD: Timestamps from solo are off so I removed them. The rest are suspect as well.
!!!ENC: Nathaniel Condit-Schultz
!!!EST: Awating manual error checking and editing.
!!!OTL: Over The Hills And Far Away
!!!RDF**chordsym: original McGill chord annotation + (implied pitch class set, with bass pitch in first position)
!!!RDF**harmony: **recip + pitch class of root + harmonic quality
!!!RDF**leadinstrument: original McGill primary instrumentation annotation
!!!RDF**phrase: newline = linebreak in original McGill transcription
!!!RDF**timestamp: McGill audio timestamp in seconds
!!!RDT: 2017/01/12/
!!!SampleActualRank: 81, 64
!!!SampleID#: 53, 1025
!!!SampleTargetRank: 80, 64
